build/images/logos/mongodb.svg

<svg width="56" height="122" xmlns="http://www.w3.org/2000/svg"><g fill="none" fill-rule="evenodd"><path d="M52.038 39.812c1.605 4.643 2.761 9.383 3.141 14.296.472 6.095.256 12.147-1.029 18.142-.035.165-.109.32-.164.48-.403.001-.814-.049-1.208.012-3.329.523-6.655 1.065-9.981 1.604-3.438.557-6.881 1.092-10.313 1.687-1.216.21-2.721-.041-3.212 1.641-.014.046-.154.054-.235.08l.166-10.051-.169-24.252 1.602-.275c2.62-.429 5.24-.864 7.862-1.281 3.129-.497 6.261-.98 9.392-1.465 1.381-.215 2.764-.412 4.148-.618z" fill="#D3D3D3"/><path d="M25.729 107.054c-1.69-1.453-3.439-2.842-5.059-4.37-8.717-8.222-15.093-17.899-18.233-29.566C1.572 69.907.995 66.644.81 63.326c-.13-2.322-.318-4.665-.154-6.975.437-6.144 1.325-12.229 3.127-18.147l.099-.138c.175.233.427.439.516.702 1.759 5.18 3.505 10.364 5.242 15.551 5.458 16.3 10.909 32.604 16.376 48.9.107.318.384.579.583.866l-.87 2.969z" fill="#CCC"/><path d="M52.038 39.812c-1.384.206-2.768.403-4.149.616-3.131.485-6.263.968-9.392 1.465-2.622.417-5.242.852-7.862 1.281l-1.602.275-.012-1.045c-.053-.859-.144-1.717-.154-2.576-.069-5.478-.112-10.956-.18-16.434-.042-3.429-.105-6.857-.175-10.285-.043-2.13-.089-4.261-.185-6.388-.052-1.143-.236-2.28-.311-3.423-.042-.657.016-1.319.029-1.979.817 1.583 1.616 3.178 2.456 4.749 1.327 2.484 3.441 4.314 5.344 6.311 7.523 7.892 12.864 17.068 16.193 27.433z" fill="#DAD9D9"/><path d="M29.036 77.753c.081-.026.222-.034.235-.08.491-1.682 1.996-1.431 3.212-1.641 3.432-.594 6.875-1.13 10.313-1.687 3.326-.539 6.652-1.081 9.981-1.604.394-.062.805-.011 1.208-.012-.622 2.22-1.112 4.488-1.901 6.647-.896 2.449-1.98 4.839-3.131 7.182a49.142 49.142 0 01-6.353 9.763c-1.919 2.308-4.058 4.441-6.202 6.548-1.185 1.165-2.582 2.114-3.882 3.161l-.337-.23-1.214-1.038-1.256-2.753a41.402 41.402 0 01-1.394-9.838l.023-.561.171-2.426c.057-.828.133-1.655.168-2.485.129-2.982.241-5.964.359-8.946z" fill="#CCC"/><path d="M29.036 77.753c-.118 2.982-.23 5.964-.357 8.947-.035.83-.111 1.657-.168 2.485l-.765.289c-1.699-5.002-3.399-9.951-5.062-14.913-2.75-8.209-5.467-16.431-8.213-24.642a4498.887 4498.887 0 00-6.7-19.867c-.105-.31-.407-.552-.617-.826l4.896-9.002c.168.292.39.565.496.879a6167.476 6167.476 0 016.768 20.118c2.916 8.73 5.814 17.467 8.728 26.198.116.349.308.671.491 1.062l.67-.78-.167 10.052z" fill="#D3D3D3"/><path d="M7.772 30.053a4498.887 4498.887 0 016.7 19.867c2.746 8.211 5.463 16.433 8.213 24.642 1.662 4.961 3.362 9.911 5.062 14.913l.765-.289-.171 2.426-.155.559c-.266 2.656-.49 5.318-.814 7.968-.163 1.328-.509 2.632-.772 3.947-.198-.287-.476-.548-.583-.866-5.467-16.297-10.918-32.6-16.376-48.9a3888.972 3888.972 0 00-5.242-15.551c-.089-.263-.34-.469-.516-.702l3.272-8.84c.21.274.511.516.617.826z" fill="#CCC"/><path d="M29.202 67.702l-.67.78c-.183-.391-.375-.714-.491-1.062-2.913-8.731-5.812-17.468-8.728-26.198a6167.476 6167.476 0 00-6.768-20.118c-.105-.314-.327-.588-.496-.879l6.055-7.965c.191.255.463.482.562.769 1.681 4.921 3.347 9.848 5.003 14.778 1.547 4.604 3.071 9.215 4.636 13.813.105.308.47.526.714.786l.012 1.045c.058 8.082.115 16.167.171 24.251z" fill="#D3D3D3"/><path d="M29.021 42.404c-.244-.26-.609-.478-.714-.786-1.565-4.598-3.089-9.209-4.636-13.813-1.656-4.93-3.322-9.856-5.003-14.778-.099-.287-.371-.514-.562-.769 1.969-1.928 3.877-3.925 5.925-5.764 1.821-1.634 3.285-3.386 3.352-5.968.003-.107.059-.214.145-.514l.519 1.306c-.013.661-.072 1.322-.029 1.979.075 1.143.259 2.28.311 3.423.096 2.127.142 4.258.185 6.388.069 3.428.132 6.856.175 10.285.067 5.478.111 10.956.18 16.434.008.861.098 1.718.152 2.577z" fill="#DAD9D9"/><path d="M26.598 104.085c.263-1.315.609-2.62.772-3.947.325-2.649.548-5.312.814-7.968l.066-.01.066.011a41.402 41.402 0 001.394 9.838c-.176.232-.425.439-.518.701-.727 2.05-1.412 4.116-2.143 6.166-.1.28-.378.498-.574.744l-.747-2.566.87-2.969z" fill="#AAA"/><path d="M26.476 109.621c.196-.246.475-.464.574-.744.731-2.05 1.417-4.115 2.143-6.166.093-.262.341-.469.518-.701l1.255 2.754c-.248.352-.59.669-.728 1.061l-2.404 7.059c-.099.283-.437.483-.663.722l-.695-3.985z" fill="#B9B9B8"/><path d="M27.171 113.605c.227-.238.564-.439.663-.722l2.404-7.059c.137-.391.48-.709.728-1.061l1.215 1.037c-.587.58-.913 1.25-.717 2.097l-.369 1.208c-.168.207-.411.387-.494.624-.839 2.403-1.64 4.819-2.485 7.222-.107.305-.404.544-.614.812-.109-1.387-.22-2.771-.331-4.158z" fill="#C3C3C2"/><path d="M27.503 117.763c.209-.269.506-.508.614-.812.845-2.402 1.646-4.818 2.485-7.222.083-.236.325-.417.494-.624l-.509 5.545c-.136.157-.333.294-.398.477-.575 1.614-1.117 3.24-1.694 4.854-.119.333-.347.627-.525.938-.158-.207-.441-.407-.454-.623-.051-.841-.016-1.688-.013-2.533z" fill="#D5D5D5"/><path d="M27.969 120.919c.178-.312.406-.606.525-.938.578-1.613 1.119-3.239 1.694-4.854.065-.183.263-.319.398-.477l.012 3.64-1.218 3.124-1.411-.495z" fill="#DBDAC7"/><path fill="#EBE9DC" d="M29.38 121.415l1.218-3.124.251 3.696-1.469-.572z"/><path d="M31.464 107.898c-.196-.847.129-1.518.717-2.097l.337.23-1.054 1.867z" fill="#CECDB7"/><path fill="#4FAA41" d="M28.316 92.172l-.066-.011-.066.01.155-.559-.023.56z"/></g></svg>

<?xml version="1.0" encoding="UTF-8"?>
<svg width="56px" height="122px" viewBox="0 0 56 122" version="1.1" xmlns="http://www.w3.org/2000/svg" xmlns:xlink="http://www.w3.org/1999/xlink">
    <title>mongodb</title>
    <g id="Page-1" stroke="none" stroke-width="1" fill="none" fill-rule="evenodd">
        <g id="mongodb">
            <path d="M52.038,39.812 C53.643,44.455 54.799,49.195 55.179,54.108 C55.651,60.203 55.435,66.255 54.15,72.25 C54.115,72.415 54.041,72.57 53.986,72.73 C53.583,72.731 53.172,72.681 52.778,72.742 C49.449,73.265 46.123,73.807 42.797,74.346 C39.359,74.903 35.916,75.438 32.484,76.033 C31.268,76.243 29.763,75.992 29.272,77.674 C29.258,77.72 29.118,77.728 29.037,77.754 L29.203,67.703 C29.146,59.619 29.09,51.535 29.034,43.451 L30.636,43.176 C33.256,42.747 35.876,42.312 38.498,41.895 C41.627,41.398 44.759,40.915 47.89,40.43 C49.271,40.215 50.654,40.018 52.038,39.812 Z" id="Path" fill="#D3D3D3"></path>
            <path d="M25.729,107.054 C24.039,105.601 22.29,104.212 20.67,102.684 C11.953,94.462 5.577,84.785 2.437,73.118 C1.572,69.907 0.995,66.644 0.81,63.326 C0.68,61.004 0.492,58.661 0.656,56.351 C1.093,50.207 1.981,44.122 3.783,38.204 L3.882,38.066 C4.057,38.299 4.309,38.505 4.398,38.768 C6.157,43.948 7.903,49.132 9.64,54.319 C15.098,70.619 20.549,86.923 26.016,103.219 C26.123,103.537 26.4,103.798 26.599,104.085 L25.729,107.054 L25.729,107.054 Z" id="Path" fill="#CCCCCC"></path>
            <path d="M52.038,39.812 C50.654,40.018 49.27,40.215 47.889,40.428 C44.758,40.913 41.626,41.396 38.497,41.893 C35.875,42.31 33.255,42.745 30.635,43.174 L29.033,43.449 L29.021,42.404 C28.968,41.545 28.877,40.687 28.867,39.828 C28.798,34.35 28.755,28.872 28.687,23.394 C28.645,19.965 28.582,16.537 28.512,13.109 C28.469,10.979 28.423,8.848 28.327,6.721 C28.275,5.578 28.091,4.441 28.016,3.298 C27.974,2.641 28.032,1.979 28.045,1.319 C28.862,2.902 29.661,4.497 30.501,6.068 C31.828,8.552 33.942,10.382 35.845,12.379 C43.368,20.271 48.709,29.447 52.038,39.812 L52.038,39.812 Z" id="Path" fill="#DAD9D9"></path>
            <path d="M29.036,77.753 C29.117,77.727 29.258,77.719 29.271,77.673 C29.762,75.991 31.267,76.242 32.483,76.032 C35.915,75.438 39.358,74.902 42.796,74.345 C46.122,73.806 49.448,73.264 52.777,72.741 C53.171,72.679 53.582,72.73 53.985,72.729 C53.363,74.949 52.873,77.217 52.084,79.376 C51.188,81.825 50.104,84.215 48.953,86.558 C47.233,90.061 45.09,93.328 42.6,96.321 C40.681,98.629 38.542,100.762 36.398,102.869 C35.213,104.034 33.816,104.983 32.516,106.03 L32.179,105.8 L30.965,104.762 L29.709,102.009 C28.844,98.786 28.39,95.505 28.315,92.171 L28.338,91.61 L28.509,89.184 C28.566,88.356 28.642,87.529 28.677,86.699 C28.806,83.717 28.918,80.735 29.036,77.753 L29.036,77.753 Z" id="Path" fill="#CCCCCC"></path>
            <path d="M29.036,77.753 C28.918,80.735 28.806,83.717 28.679,86.7 C28.644,87.53 28.568,88.357 28.511,89.185 L27.746,89.474 C26.047,84.472 24.347,79.523 22.684,74.561 C19.934,66.352 17.217,58.13 14.471,49.919 C12.254,43.291 10.019,36.67 7.771,30.052 C7.666,29.742 7.364,29.5 7.154,29.226 L12.05,20.224 C12.218,20.516 12.44,20.789 12.546,21.103 C14.811,27.806 17.072,34.51 19.314,41.221 C22.23,49.951 25.128,58.688 28.042,67.419 C28.158,67.768 28.35,68.09 28.533,68.481 L29.203,67.701 C29.147,71.052 29.091,74.402 29.036,77.753 L29.036,77.753 Z" id="Path" fill="#D3D3D3"></path>
            <path d="M7.772,30.053 C10.02,36.671 12.255,43.292 14.472,49.92 C17.218,58.131 19.935,66.353 22.685,74.562 C24.347,79.523 26.047,84.473 27.747,89.475 L28.512,89.186 L28.341,91.612 L28.186,92.171 C27.92,94.827 27.696,97.489 27.372,100.139 C27.209,101.467 26.863,102.771 26.6,104.086 C26.402,103.799 26.124,103.538 26.017,103.22 C20.55,86.923 15.099,70.62 9.641,54.32 C7.904,49.133 6.158,43.949 4.399,38.769 C4.31,38.506 4.059,38.3 3.883,38.067 C4.973,35.12 6.064,32.173 7.155,29.227 C7.365,29.501 7.666,29.743 7.772,30.053 Z" id="Path" fill="#CCCCCC"></path>
            <path d="M29.202,67.702 L28.532,68.482 C28.349,68.091 28.157,67.768 28.041,67.42 C25.128,58.689 22.229,49.952 19.313,41.222 C17.071,34.511 14.81,27.807 12.545,21.104 C12.44,20.79 12.218,20.516 12.049,20.225 L18.104,12.26 C18.295,12.515 18.567,12.742 18.666,13.029 C20.347,17.95 22.013,22.877 23.669,27.807 C25.216,32.411 26.74,37.022 28.305,41.62 C28.41,41.928 28.775,42.146 29.019,42.406 L29.031,43.451 C29.089,51.533 29.146,59.618 29.202,67.702 L29.202,67.702 Z" id="Path" fill="#D3D3D3"></path>
            <path d="M29.021,42.404 C28.777,42.144 28.412,41.926 28.307,41.618 C26.742,37.02 25.218,32.409 23.671,27.805 C22.015,22.875 20.349,17.949 18.668,13.027 C18.569,12.74 18.297,12.513 18.106,12.258 C20.075,10.33 21.983,8.333 24.031,6.494 C25.852,4.86 27.316,3.108 27.383,0.526 C27.386,0.419 27.442,0.312 27.528,0.012 L28.047,1.318 C28.034,1.979 27.975,2.64 28.018,3.297 C28.093,4.44 28.277,5.577 28.329,6.72 C28.425,8.847 28.471,10.978 28.514,13.108 C28.583,16.536 28.646,19.964 28.689,23.393 C28.756,28.871 28.8,34.349 28.869,39.827 C28.877,40.688 28.967,41.545 29.021,42.404 L29.021,42.404 Z" id="Path" fill="#DAD9D9"></path>
            <path d="M26.598,104.085 C26.861,102.77 27.207,101.465 27.37,100.138 C27.695,97.489 27.918,94.826 28.184,92.17 L28.25,92.16 L28.316,92.171 C28.391,95.505 28.845,98.786 29.71,102.009 C29.534,102.241 29.285,102.448 29.192,102.71 C28.465,104.76 27.78,106.826 27.049,108.876 C26.949,109.156 26.671,109.374 26.475,109.62 L25.728,107.054 L26.598,104.085 L26.598,104.085 Z" id="Path" fill="#AAAAAA"></path>
            <path d="M26.476,109.621 C26.672,109.375 26.951,109.157 27.05,108.877 C27.781,106.827 28.467,104.762 29.193,102.711 C29.286,102.449 29.534,102.242 29.711,102.01 L30.966,104.764 C30.718,105.116 30.376,105.433 30.238,105.825 L27.834,112.884 C27.735,113.167 27.397,113.367 27.171,113.606 L26.476,109.621 L26.476,109.621 Z" id="Path" fill="#B9B9B8"></path>
            <path d="M27.171,113.605 C27.398,113.367 27.735,113.166 27.834,112.883 L30.238,105.824 C30.375,105.433 30.718,105.115 30.966,104.763 L32.181,105.8 C31.594,106.38 31.268,107.05 31.464,107.897 L31.095,109.105 C30.927,109.312 30.684,109.492 30.601,109.729 C29.762,112.132 28.961,114.548 28.116,116.951 C28.009,117.256 27.712,117.495 27.502,117.763 C27.393,116.376 27.282,114.992 27.171,113.605 L27.171,113.605 Z" id="Path" fill="#C3C3C2"></path>
            <path d="M27.503,117.763 C27.712,117.494 28.009,117.255 28.117,116.951 C28.962,114.549 29.763,112.133 30.602,109.729 C30.685,109.493 30.927,109.312 31.096,109.105 L30.587,114.65 C30.451,114.807 30.254,114.944 30.189,115.127 C29.614,116.741 29.072,118.367 28.495,119.981 C28.376,120.314 28.148,120.608 27.97,120.919 C27.812,120.712 27.529,120.512 27.516,120.296 C27.465,119.455 27.5,118.608 27.503,117.763 L27.503,117.763 Z" id="Path" fill="#D5D5D5"></path>
            <path d="M27.969,120.919 C28.147,120.607 28.375,120.313 28.494,119.981 C29.072,118.368 29.613,116.742 30.188,115.127 C30.253,114.944 30.451,114.808 30.586,114.65 L30.598,118.29 L29.38,121.414 L27.969,120.919 L27.969,120.919 Z" id="Path" fill="#DBDAC7"></path>
            <polygon id="Path" fill="#EBE9DC" points="29.38 121.415 30.598 118.291 30.849 121.987 29.38 121.415"></polygon>
            <path d="M31.464,107.898 C31.268,107.051 31.593,106.38 32.181,105.801 L32.518,106.031 L31.464,107.898 L31.464,107.898 Z" id="Path" fill="#CECDB7"></path>
            <polygon id="Path" fill="#4FAA41" points="28.316 92.172 28.25 92.161 28.184 92.171 28.339 91.612 28.316 92.172"></polygon>
        </g>
    </g>
</svg>
